public/library/bullish-exchange-icon-light.svg

<svg width="246" height="246" viewBox="0 0 246 246" fill="none" xmlns="http://www.w3.org/2000/svg">
<rect width="246" height="245.759" fill="white"/>
<rect x="0.5" y="0.5" width="245" height="244.759" stroke="black" stroke-opacity="0.15"/>
<path d="M115.266 105.418C103.438 95.8647 90.9332 91.4267 75.0471 89.2002C60.7692 87.1994 52.1423 84.3411 39.6228 75.6608L32.063 86.9286C43.2749 95.278 53.7805 99.415 68.0133 101.882C78.083 103.627 85.9585 103.748 96.434 109.314C94.3749 111.992 92.4962 115.933 91.354 118.611C86.1238 115.512 78.4137 113.135 68.1185 113.03V126.449C73.1233 126.659 77.6171 127.276 83.674 129.909C91.0534 133.113 96.1935 137.912 96.1935 137.912C102.085 117.197 115.266 105.418 115.266 105.418ZM148.315 122.974C137.494 131.022 130.746 143.102 128.928 156.491H117.821C123.908 107.794 168.62 103.417 177.112 102.213C192.442 100.047 203.428 95.293 214.625 86.9437L207.065 75.6758C194.546 84.3561 185.919 87.2144 171.641 89.2153C155.755 91.4418 142.71 96.2107 130.881 105.764C112.485 120.296 103.828 141.658 103.828 163.246L103.843 169.986H141.507V163.231C141.357 143.418 156.266 133.79 156.266 133.79C161.601 130.18 169.612 126.133 178.57 126.479V113.06C168.5 112.955 158.085 116.159 148.315 122.974Z" fill="black"/>
</svg>

<svg xmlns="http://www.w3.org/2000/svg" width="246" height="246" fill="none" viewBox="0 0 246 246"><path fill="#fff" d="M0 0h246v245.759H0z"/><path stroke="#000" stroke-opacity=".15" d="M.5.5h245v244.759H.5z"/><path fill="#000" d="M115.266 105.418C103.438 95.865 90.933 91.427 75.047 89.2c-14.278-2-22.905-4.859-35.424-13.54l-7.56 11.269c11.212 8.349 21.718 12.486 35.95 14.953 10.07 1.745 17.945 1.866 28.421 7.432-2.06 2.678-3.938 6.619-5.08 9.297-5.23-3.099-12.94-5.476-23.235-5.581v13.419c5.004.21 9.498.827 15.555 3.46 7.38 3.204 12.52 8.003 12.52 8.003 5.891-20.715 19.072-32.494 19.072-32.494m33.049 17.556c-10.821 8.048-17.569 20.128-19.387 33.517h-11.107c6.087-48.697 50.799-53.074 59.291-54.278 15.33-2.166 26.316-6.92 37.513-15.27l-7.56-11.267c-12.519 8.68-21.146 11.538-35.424 13.54-15.886 2.226-28.931 6.995-40.76 16.548-18.396 14.532-27.053 35.894-27.053 57.482l.015 6.74h37.664v-6.755c-.15-19.813 14.759-29.441 14.759-29.441 5.335-3.61 13.346-7.657 22.304-7.311V113.06c-10.07-.105-20.485 3.099-30.255 9.914"/></svg>
